X:92
T:Dick the Welch Man
M:C
L:1/8
B:Thompson's Compleat Collection of 200 Favourite Country Dances, vol. 2 (London, 1765)
Z:Transcribed and edited by Flynn Titford-Mock, 2007
Z:abc's:AK/Fiddler's Companion
K:A
e | {d}cBAc dfec | faec dBBe | {d}cBAc dfec | faed cAA :|
|: e | fa^ga eaga | (3def ec d(BB)e | faga eaga | (3def ed c(AA) :|

